X:1
T:Jefferson and Liberty
M:6/8
L:1/8
K:C
 z4 zA/2-B/2| c2 AA-G A| E2 A A2 c| B2 GG-A B|d-B A G2 B| c2 AA-G A|\
 E2 A A2 c|e-d cB-A B| c2 A A2 A| A2 B c2 d| e2 g g2 f| e2 f g2 e|\
d-B A G2 G| A2 B c2 d|e-f g a2 f|e-d cB-G B| E2 A A2 z|
